img/instagram.svg

<svg width="20" height="20" viewBox="0 0 20 20" fill="none" xmlns="http://www.w3.org/2000/svg">
<path d="M10 20C8.64583 20 7.35026 19.7363 6.11328 19.209C4.8763 18.6816 3.81185 17.972 2.91992 17.0801C2.02799 16.1882 1.31836 15.1237 0.791016 13.8867C0.263672 12.6497 0 11.3542 0 10C0 8.64583 0.263672 7.35026 0.791016 6.11328C1.31836 4.8763 2.02799 3.81185 2.91992 2.91992C3.81185 2.02799 4.8763 1.31836 6.11328 0.791016C7.35026 0.263672 8.64583 0 10 0C11.3542 0 12.6497 0.263672 13.8867 0.791016C15.1237 1.31836 16.1882 2.02799 17.0801 2.91992C17.972 3.81185 18.6816 4.8763 19.209 6.11328C19.7363 7.35026 20 8.64583 20 10C20 11.3542 19.7363 12.6497 19.209 13.8867C18.6816 15.1237 17.972 16.1882 17.0801 17.0801C16.1882 17.972 15.1237 18.6816 13.8867 19.209C12.6497 19.7363 11.3542 20 10 20ZM15 6.25C15 5.91146 14.8796 5.61849 14.6387 5.37109C14.3978 5.1237 14.1016 5 13.75 5H6.25C5.91146 5 5.61849 5.1237 5.37109 5.37109C5.1237 5.61849 5 5.91146 5 6.25V7.5H7.22656C7.98177 6.66667 8.90625 6.25 10 6.25C11.0938 6.25 12.0182 6.66667 12.7734 7.5H15V6.25ZM7.5 10C7.5 10.6901 7.74414 11.2793 8.23242 11.7676C8.7207 12.2559 9.3099 12.5 10 12.5C10.6901 12.5 11.2793 12.2559 11.7676 11.7676C12.2559 11.2793 12.5 10.6901 12.5 10C12.5 9.3099 12.2559 8.7207 11.7676 8.23242C11.2793 7.74414 10.6901 7.5 10 7.5C9.3099 7.5 8.7207 7.74414 8.23242 8.23242C7.74414 8.7207 7.5 9.3099 7.5 10ZM15 8.75H13.5156C13.6719 9.17969 13.75 9.59635 13.75 10C13.75 11.0417 13.3854 11.9271 12.6562 12.6562C11.9271 13.3854 11.0417 13.75 10 13.75C8.95833 13.75 8.07292 13.3854 7.34375 12.6562C6.61458 11.9271 6.25 11.0417 6.25 10C6.25 9.59635 6.32812 9.17969 6.48438 8.75H5V13.75C5 14.1016 5.12044 14.3978 5.36133 14.6387C5.60221 14.8796 5.89844 15 6.25 15H13.75C14.1016 15 14.3978 14.8796 14.6387 14.6387C14.8796 14.3978 15 14.1016 15 13.75V8.75Z" fill="#BDBDBD"/>
</svg>

<svg xmlns="http://www.w3.org/2000/svg" width="20" height="20" fill="none"  xmlns:v="https://vecta.io/nano"><path d="M10 20a9.81 9.81 0 0 1-3.887-.791c-1.237-.527-2.3-1.237-3.193-2.13S1.318 15.124.79 13.887A9.81 9.81 0 0 1 0 10a9.81 9.81 0 0 1 .791-3.887c.527-1.237 1.237-2.3 2.13-3.193S4.876 1.318 6.113.79A9.81 9.81 0 0 1 10 0a9.81 9.81 0 0 1 3.887.791c1.237.527 2.3 1.237 3.193 2.13s1.6 1.956 2.13 3.193A9.81 9.81 0 0 1 20 10a9.81 9.81 0 0 1-.791 3.887c-.527 1.237-1.237 2.3-2.13 3.193s-1.956 1.6-3.193 2.13A9.81 9.81 0 0 1 10 20zm5-13.75c0-.34-.12-.632-.36-.88A1.19 1.19 0 0 0 13.75 5h-7.5a1.2 1.2 0 0 0-.879.371A1.2 1.2 0 0 0 5 6.25V7.5h2.227c.755-.833 1.68-1.25 2.773-1.25s2.018.417 2.773 1.25H15V6.25zM7.5 10c0 .7.244 1.28.732 1.768S9.3 12.5 10 12.5s1.28-.244 1.768-.732S12.5 10.7 12.5 10s-.244-1.28-.732-1.768S10.7 7.5 10 7.5s-1.28.244-1.768.732S7.5 9.3 7.5 10zM15 8.75h-1.484c.156.43.234.846.234 1.25 0 1.042-.365 1.927-1.094 2.656S11.042 13.75 10 13.75s-1.927-.365-2.656-1.094S6.25 11.042 6.25 10c0-.404.078-.82.234-1.25H5v5c0 .352.12.648.36.89s.537.36.89.36h7.5c.352 0 .648-.12.89-.36s.36-.537.36-.89v-5z" fill="#bdbdbd"/></svg>
